svgs/sharp-light/text-width.svg

<svg xmlns="http://www.w3.org/2000/svg" viewBox="0 0 448 512"><!--! Font Awesome Pro 6.6.0 by @fontawesome - https://fontawesome.com License - https://fontawesome.com/license (Commercial License) Copyright 2024 Fonticons, Inc. --><path d="M16 32L0 32 0 48l0 80 0 16 32 0 0-16 0-64 176 0 0 192-48 0-16 0 0 32 16 0 128 0 16 0 0-32-16 0-48 0 0-192 176 0 0 64 0 16 32 0 0-16 0-80 0-16-16 0L16 32zM12.7 372.7L1.4 384l11.3 11.3 80 80 22.6-22.6L62.6 400l322.7 0-52.7 52.7 22.6 22.6 80-80L446.6 384l-11.3-11.3-80-80-22.6 22.6L385.4 368 62.6 368l52.7-52.7L92.7 292.7l-80 80z"/></svg>

<svg xmlns="http://www.w3.org/2000/svg" viewBox="0 0 448 512"><!--! Font Awesome Pro 6.4.0 by @fontawesome - https://fontawesome.com License - https://fontawesome.com/license (Commercial License) Copyright 2023 Fonticons, Inc. --><path d="M16 32H0V48v80 16H32V128 64H208l0 192H160 144v32h16H288h16V256H288 240l0-192H416v64 16h32V128 48 32H432 16zM12.7 372.7L1.4 384l11.3 11.3 80 80 22.6-22.6L62.6 400H385.4l-52.7 52.7 22.6 22.6 80-80L446.6 384l-11.3-11.3-80-80-22.6 22.6L385.4 368H62.6l52.7-52.7L92.7 292.7l-80 80z"/></svg>
